themes/rowanmanning/static/icons/repost.svg

<svg width="25" height="25" xmlns="http://www.w3.org/2000/svg"><path d="M25 12.5C25 19.404 19.404 25 12.5 25S0 19.404 0 12.5 5.596 0 12.5 0 25 5.596 25 12.5zm-12.691-2.268h4.281v2.811h-2.346a.322.322 0 0 0-.287.17.303.303 0 0 0 .021.327l3.465 4.85a.33.33 0 0 0 .534 0l3.464-4.849a.313.313 0 0 0 .022-.328.33.33 0 0 0-.288-.17h-2.347V9.114c0-.618-.501-1.119-1.119-1.119l-5.4-.001a1.119 1.119 0 0 0 0 2.238zm.382 5.684H8.41v-2.932h2.346a.324.324 0 0 0 .287-.17.305.305 0 0 0-.021-.328L7.557 7.637a.327.327 0 0 0-.533 0l-3.465 4.849a.307.307 0 0 0-.022.328.33.33 0 0 0 .288.17h2.347v4.05c0 .618.501 1.119 1.118 1.119h5.401a1.119 1.119 0 0 0 0-2.237z" style="fill:#3f6f3b"/></svg>

<?xml version="1.0" encoding="utf-8"?>
<svg width="25" height="25" viewBox="0 0 25 25" xmlns="http://www.w3.org/2000/svg">
  <path d="M 25 12.5 C 25 19.404 19.404 25 12.5 25 C 5.596 25 0 19.404 0 12.5 C 0 5.596 5.596 0 12.5 0 C 19.404 0 25 5.596 25 12.5 Z M 12.309 10.232 L 16.59 10.232 L 16.59 13.043 L 14.244 13.043 C 14.123 13.043 14.012 13.108 13.957 13.213 C 13.899 13.319 13.908 13.443 13.978 13.54 L 17.443 18.39 C 17.503 18.474 17.603 18.525 17.709 18.525 C 17.816 18.525 17.915 18.475 17.977 18.39 L 21.441 13.541 C 21.48 13.486 21.5 13.423 21.5 13.36 C 21.5 13.31 21.488 13.26 21.463 13.213 C 21.406 13.11 21.296 13.043 21.175 13.043 L 18.828 13.043 L 18.828 9.114 C 18.828 8.496 18.327 7.995 17.709 7.995 L 12.309 7.994 C 11.691 7.994 11.19 8.495 11.19 9.113 C 11.19 9.731 11.691 10.232 12.309 10.232 Z M 12.691 15.916 L 8.41 15.916 L 8.41 12.984 L 10.756 12.984 C 10.877 12.984 10.988 12.918 11.043 12.814 C 11.101 12.708 11.092 12.582 11.022 12.486 L 7.557 7.637 C 7.497 7.551 7.397 7.5 7.291 7.5 C 7.184 7.5 7.086 7.551 7.024 7.637 L 3.559 12.486 C 3.52 12.54 3.5 12.603 3.5 12.666 C 3.5 12.717 3.512 12.767 3.537 12.814 C 3.594 12.918 3.705 12.984 3.825 12.984 L 6.172 12.984 L 6.172 17.034 C 6.172 17.652 6.673 18.153 7.29 18.153 L 12.691 18.153 C 13.309 18.153 13.81 17.652 13.81 17.034 C 13.81 16.417 13.31 15.916 12.691 15.916 Z" style="fill: rgb(63, 111, 59);"/>
</svg>
